X: 26198
T: McShane's Rambles
R: jig
M: 6/8
K: Ddorian
|:DEF G2G|ADE FGA|BAG c2A|BcB AGE|
DEF G2G|ADE FGA|BAG cAG|F2D D3:|
|:dcB c2A|BAG ABA|GEE BEE|BAG ABc|
dcB c2A|BAG ABA|GEE BEE|DED D3:|

